documentation/public/assets/images/slider-05.svg

<svg width="672" height="122" viewBox="0 0 672 122" fill="none" xmlns="http://www.w3.org/2000/svg">
<rect width="672" height="122" fill="#F6F6F6"/>
<rect x="208" y="45" width="256" height="4" rx="2" fill="#B0B0B0"/>
<rect x="208" y="45" width="128" height="4" rx="2" fill="#1E71F6"/>
<circle cx="334" cy="47" r="8" fill="#194CCC"/>
<path d="M209.227 83V74.2727H210.523V75.6364H210.636C210.818 75.1705 211.112 74.8087 211.517 74.5511C211.922 74.2898 212.409 74.1591 212.977 74.1591C213.553 74.1591 214.032 74.2898 214.415 74.5511C214.801 74.8087 215.102 75.1705 215.318 75.6364H215.409C215.633 75.1856 215.968 74.8277 216.415 74.5625C216.862 74.2936 217.398 74.1591 218.023 74.1591C218.803 74.1591 219.441 74.4034 219.938 74.892C220.434 75.3769 220.682 76.1326 220.682 77.1591V83H219.341V77.1591C219.341 76.5152 219.165 76.0549 218.812 75.7784C218.46 75.5019 218.045 75.3636 217.568 75.3636C216.955 75.3636 216.479 75.5492 216.142 75.9205C215.805 76.2879 215.636 76.7538 215.636 77.3182V83H214.273V77.0227C214.273 76.5265 214.112 76.1269 213.79 75.8239C213.468 75.517 213.053 75.3636 212.545 75.3636C212.197 75.3636 211.871 75.4564 211.568 75.642C211.269 75.8277 211.027 76.0852 210.841 76.4148C210.659 76.7405 210.568 77.1174 210.568 77.5455V83H209.227ZM223.134 83V74.2727H224.474V83H223.134ZM223.815 72.8182C223.554 72.8182 223.329 72.7292 223.139 72.5511C222.954 72.3731 222.861 72.1591 222.861 71.9091C222.861 71.6591 222.954 71.4451 223.139 71.267C223.329 71.089 223.554 71 223.815 71C224.077 71 224.3 71.089 224.486 71.267C224.675 71.4451 224.77 71.6591 224.77 71.9091C224.77 72.1591 224.675 72.3731 224.486 72.5511C224.3 72.7292 224.077 72.8182 223.815 72.8182ZM228.271 77.75V83H226.93V74.2727H228.226V75.6364H228.339C228.544 75.1932 228.855 74.8371 229.271 74.5682C229.688 74.2955 230.226 74.1591 230.885 74.1591C231.476 74.1591 231.993 74.2803 232.436 74.5227C232.879 74.7614 233.224 75.125 233.47 75.6136C233.716 76.0985 233.839 76.7121 233.839 77.4545V83H232.499V77.5455C232.499 76.8598 232.321 76.3258 231.964 75.9432C231.608 75.5568 231.12 75.3636 230.499 75.3636C230.071 75.3636 229.688 75.4564 229.351 75.642C229.018 75.8277 228.754 76.0985 228.561 76.4545C228.368 76.8106 228.271 77.2424 228.271 77.75Z" fill="#757575"/>
<path d="M321.227 83V74.2727H322.523V75.6364H322.636C322.818 75.1705 323.112 74.8087 323.517 74.5511C323.922 74.2898 324.409 74.1591 324.977 74.1591C325.553 74.1591 326.032 74.2898 326.415 74.5511C326.801 74.8087 327.102 75.1705 327.318 75.6364H327.409C327.633 75.1856 327.968 74.8277 328.415 74.5625C328.862 74.2936 329.398 74.1591 330.023 74.1591C330.803 74.1591 331.441 74.4034 331.938 74.892C332.434 75.3769 332.682 76.1326 332.682 77.1591V83H331.341V77.1591C331.341 76.5152 331.165 76.0549 330.812 75.7784C330.46 75.5019 330.045 75.3636 329.568 75.3636C328.955 75.3636 328.479 75.5492 328.142 75.9205C327.805 76.2879 327.636 76.7538 327.636 77.3182V83H326.273V77.0227C326.273 76.5265 326.112 76.1269 325.79 75.8239C325.468 75.517 325.053 75.3636 324.545 75.3636C324.197 75.3636 323.871 75.4564 323.568 75.642C323.269 75.8277 323.027 76.0852 322.841 76.4148C322.659 76.7405 322.568 77.1174 322.568 77.5455V83H321.227ZM335.134 83V74.2727H336.474V83H335.134ZM335.815 72.8182C335.554 72.8182 335.329 72.7292 335.139 72.5511C334.954 72.3731 334.861 72.1591 334.861 71.9091C334.861 71.6591 334.954 71.4451 335.139 71.267C335.329 71.089 335.554 71 335.815 71C336.077 71 336.3 71.089 336.486 71.267C336.675 71.4451 336.77 71.6591 336.77 71.9091C336.77 72.1591 336.675 72.3731 336.486 72.5511C336.3 72.7292 336.077 72.8182 335.815 72.8182ZM342.226 83.1818C341.499 83.1818 340.857 82.9981 340.3 82.6307C339.743 82.2595 339.307 81.7367 338.993 81.0625C338.679 80.3845 338.521 79.5833 338.521 78.6591C338.521 77.7424 338.679 76.947 338.993 76.2727C339.307 75.5985 339.745 75.0777 340.305 74.7102C340.866 74.3428 341.514 74.1591 342.249 74.1591C342.817 74.1591 343.266 74.2538 343.595 74.4432C343.929 74.6288 344.182 74.8409 344.357 75.0795C344.535 75.3144 344.673 75.5076 344.771 75.6591H344.885V71.3636H346.226V83H344.93V81.6591H344.771C344.673 81.8182 344.533 82.0189 344.351 82.2614C344.169 82.5 343.91 82.714 343.572 82.9034C343.235 83.089 342.786 83.1818 342.226 83.1818ZM342.408 81.9773C342.946 81.9773 343.4 81.8371 343.771 81.5568C344.143 81.2727 344.425 80.8807 344.618 80.3807C344.811 79.8769 344.908 79.2955 344.908 78.6364C344.908 77.9848 344.813 77.4148 344.624 76.9261C344.434 76.4337 344.154 76.0511 343.783 75.7784C343.411 75.5019 342.953 75.3636 342.408 75.3636C341.839 75.3636 341.366 75.5095 340.987 75.8011C340.612 76.089 340.33 76.4811 340.141 76.9773C339.955 77.4697 339.862 78.0227 339.862 78.6364C339.862 79.2576 339.957 79.822 340.146 80.3295C340.339 80.8333 340.624 81.2348 340.999 81.5341C341.377 81.8295 341.847 81.9773 342.408 81.9773Z" fill="#757575"/>
<path d="M433.227 83V74.2727H434.523V75.6364H434.636C434.818 75.1705 435.112 74.8087 435.517 74.5511C435.922 74.2898 436.409 74.1591 436.977 74.1591C437.553 74.1591 438.032 74.2898 438.415 74.5511C438.801 74.8087 439.102 75.1705 439.318 75.6364H439.409C439.633 75.1856 439.968 74.8277 440.415 74.5625C440.862 74.2936 441.398 74.1591 442.023 74.1591C442.803 74.1591 443.441 74.4034 443.938 74.892C444.434 75.3769 444.682 76.1326 444.682 77.1591V83H443.341V77.1591C443.341 76.5152 443.165 76.0549 442.812 75.7784C442.46 75.5019 442.045 75.3636 441.568 75.3636C440.955 75.3636 440.479 75.5492 440.142 75.9205C439.805 76.2879 439.636 76.7538 439.636 77.3182V83H438.273V77.0227C438.273 76.5265 438.112 76.1269 437.79 75.8239C437.468 75.517 437.053 75.3636 436.545 75.3636C436.197 75.3636 435.871 75.4564 435.568 75.642C435.269 75.8277 435.027 76.0852 434.841 76.4148C434.659 76.7405 434.568 77.1174 434.568 77.5455V83H433.227ZM449.702 83.2045C449.149 83.2045 448.647 83.1004 448.196 82.892C447.745 82.6799 447.387 82.375 447.122 81.9773C446.857 81.5758 446.724 81.0909 446.724 80.5227C446.724 80.0227 446.823 79.6174 447.02 79.3068C447.217 78.9924 447.48 78.7462 447.81 78.5682C448.139 78.3902 448.503 78.2576 448.901 78.1705C449.302 78.0795 449.705 78.0076 450.111 77.9545C450.641 77.8864 451.071 77.8352 451.401 77.8011C451.734 77.7633 451.976 77.7008 452.128 77.6136C452.283 77.5265 452.361 77.375 452.361 77.1591V77.1136C452.361 76.553 452.207 76.1174 451.901 75.8068C451.598 75.4962 451.137 75.3409 450.52 75.3409C449.88 75.3409 449.378 75.4811 449.014 75.7614C448.651 76.0417 448.395 76.3409 448.247 76.6591L446.974 76.2045C447.202 75.6742 447.505 75.2614 447.884 74.9659C448.266 74.6667 448.683 74.4583 449.134 74.3409C449.588 74.2197 450.035 74.1591 450.474 74.1591C450.755 74.1591 451.077 74.1932 451.44 74.2614C451.808 74.3258 452.162 74.4602 452.503 74.6648C452.848 74.8693 453.134 75.178 453.361 75.5909C453.588 76.0038 453.702 76.5568 453.702 77.25V83H452.361V81.8182H452.293C452.202 82.0076 452.05 82.2102 451.838 82.4261C451.626 82.642 451.344 82.8258 450.991 82.9773C450.639 83.1288 450.209 83.2045 449.702 83.2045ZM449.906 82C450.437 82 450.884 81.8958 451.247 81.6875C451.615 81.4792 451.891 81.2102 452.077 80.8807C452.266 80.5511 452.361 80.2045 452.361 79.8409V78.6136C452.304 78.6818 452.179 78.7443 451.986 78.8011C451.796 78.8542 451.577 78.9015 451.327 78.9432C451.08 78.9811 450.84 79.0152 450.605 79.0455C450.374 79.072 450.187 79.0947 450.043 79.1136C449.694 79.1591 449.368 79.233 449.065 79.3352C448.766 79.4337 448.524 79.5833 448.338 79.7841C448.156 79.9811 448.065 80.25 448.065 80.5909C448.065 81.0568 448.238 81.4091 448.582 81.6477C448.931 81.8826 449.372 82 449.906 82ZM457.149 74.2727L459.24 77.8409L461.331 74.2727H462.876L460.058 78.6364L462.876 83H461.331L459.24 79.6136L457.149 83H455.604L458.376 78.6364L455.604 74.2727H457.149Z" fill="#757575"/>
</svg>

<svg width="672" height="122" fill="none" xmlns="http://www.w3.org/2000/svg"><path fill="#F6F6F6" d="M0 0h672v122H0z"/><rect x="208" y="45" width="256" height="4" rx="2" fill="#B0B0B0"/><rect x="208" y="45" width="128" height="4" rx="2" fill="#1E71F6"/><circle cx="334" cy="47" r="8" fill="#194CCC"/><path d="M209.23 83v-8.73h1.3v1.37h.1c.19-.47.48-.83.89-1.09.4-.26.89-.4 1.46-.4s1.05.14 1.44.4c.38.26.68.62.9 1.09h.09a2.6 2.6 0 0 1 1-1.08c.45-.27.99-.4 1.61-.4.78 0 1.42.24 1.92.73s.74 1.24.74 2.27V83h-1.34v-5.84c0-.64-.18-1.1-.53-1.38a1.96 1.96 0 0 0-1.24-.42c-.61 0-1.1.19-1.43.56-.33.37-.5.83-.5 1.4V83h-1.37v-5.98c0-.5-.16-.9-.48-1.2a1.88 1.88 0 0 0-2.22-.18c-.3.19-.54.45-.73.77-.18.33-.27.7-.27 1.14V83h-1.34Zm13.9 0v-8.73h1.34V83h-1.34Zm.69-10.18a.95.95 0 0 1-.68-.27.86.86 0 0 1-.28-.64c0-.25.1-.46.28-.64a.95.95 0 0 1 .68-.27c.26 0 .48.09.67.27.19.18.28.39.28.64s-.1.46-.28.64a.93.93 0 0 1-.68.27Zm4.45 4.93V83h-1.34v-8.73h1.3v1.37h.1c.21-.45.52-.8.94-1.07.42-.27.96-.41 1.61-.41.6 0 1.11.12 1.56.36.44.24.78.6 1.03 1.1.25.48.37 1.1.37 1.83V83h-1.34v-5.45c0-.69-.18-1.22-.54-1.6a1.9 1.9 0 0 0-1.46-.59c-.43 0-.81.1-1.15.28a2 2 0 0 0-.79.81c-.2.36-.29.8-.29 1.3ZM321.23 83v-8.73h1.3v1.37h.1c.19-.47.48-.83.89-1.09.4-.26.89-.4 1.46-.4s1.05.14 1.44.4c.38.26.68.62.9 1.09h.09a2.6 2.6 0 0 1 1-1.08c.45-.27.99-.4 1.61-.4.78 0 1.42.24 1.92.73s.74 1.24.74 2.27V83h-1.34v-5.84c0-.64-.17-1.1-.53-1.38a1.96 1.96 0 0 0-1.24-.42c-.62 0-1.1.19-1.43.56-.33.37-.5.83-.5 1.4V83h-1.37v-5.98c0-.5-.16-.9-.48-1.2a1.88 1.88 0 0 0-2.22-.18c-.3.19-.54.45-.73.77-.18.33-.27.7-.27 1.14V83h-1.34Zm13.9 0v-8.73h1.34V83h-1.34Zm.69-10.18a.95.95 0 0 1-.68-.27.86.86 0 0 1-.28-.64c0-.25.1-.46.28-.64a.95.95 0 0 1 .68-.27c.26 0 .48.09.67.27.19.18.28.39.28.64s-.1.46-.28.64a.93.93 0 0 1-.68.27Zm6.4 10.36a3.42 3.42 0 0 1-3.23-2.12 5.67 5.67 0 0 1-.47-2.4c0-.92.16-1.71.47-2.39a3.47 3.47 0 0 1 3.26-2.11c.57 0 1.02.1 1.35.28.33.19.58.4.76.64.18.23.31.43.41.58h.12v-4.3h1.34V83h-1.3v-1.34h-.16l-.42.6a2.5 2.5 0 0 1-.78.64 2.8 2.8 0 0 1-1.34.28Zm.19-1.2c.54 0 .99-.14 1.36-.42.37-.29.66-.68.85-1.18.2-.5.29-1.08.29-1.74 0-.66-.1-1.23-.29-1.71a2.24 2.24 0 0 0-2.22-1.56c-.56 0-1.03.14-1.41.43a2.6 2.6 0 0 0-.85 1.18 4.55 4.55 0 0 0-.28 1.66c0 .62.1 1.18.29 1.69.19.5.47.9.85 1.2.38.3.85.45 1.4.45ZM433.23 83v-8.73h1.3v1.37h.1c.19-.47.48-.83.89-1.09.4-.26.89-.4 1.46-.4s1.05.14 1.44.4c.38.26.68.62.9 1.09h.09a2.6 2.6 0 0 1 1-1.08c.45-.27.99-.4 1.61-.4.78 0 1.42.24 1.92.73s.74 1.24.74 2.27V83h-1.34v-5.84c0-.64-.17-1.1-.53-1.38a1.96 1.96 0 0 0-1.24-.42c-.62 0-1.1.19-1.43.56-.33.37-.5.83-.5 1.4V83h-1.37v-5.98c0-.5-.16-.9-.48-1.2a1.88 1.88 0 0 0-2.22-.18c-.3.19-.54.45-.73.77-.18.33-.27.7-.27 1.14V83h-1.34Zm16.47.2c-.55 0-1.05-.1-1.5-.3a2.77 2.77 0 0 1-1.08-.92c-.26-.4-.4-.89-.4-1.46 0-.5.1-.9.3-1.21.2-.32.46-.56.79-.74.33-.18.7-.31 1.1-.4.4-.1.8-.16 1.2-.22l1.3-.15c.32-.04.57-.1.72-.19.15-.08.23-.23.23-.45v-.05c0-.56-.15-1-.46-1.3-.3-.31-.76-.47-1.38-.47-.64 0-1.14.14-1.5.42a2.5 2.5 0 0 0-.77.9l-1.28-.46a3.06 3.06 0 0 1 2.16-1.86 5.18 5.18 0 0 1 2.31-.08c.37.07.72.2 1.06.4.35.2.63.52.86.93.23.41.34.97.34 1.66V83h-1.34v-1.18h-.07a2.62 2.62 0 0 1-1.3 1.16c-.35.15-.78.22-1.29.22Zm.2-1.2c.54 0 .98-.1 1.35-.31a2.13 2.13 0 0 0 1.11-1.85v-1.23a.93.93 0 0 1-.37.2c-.2.04-.41.1-.66.13a30.34 30.34 0 0 1-1.29.17c-.35.05-.67.12-.98.23-.3.1-.54.24-.72.44-.18.2-.27.47-.27.81 0 .47.17.82.51 1.06.35.23.8.35 1.33.35Zm7.25-7.73 2.09 3.57 2.1-3.57h1.54l-2.82 4.37 2.82 4.36h-1.55l-2.09-3.39-2.1 3.39h-1.54l2.78-4.36-2.78-4.37h1.55Z" fill="#757575"/></svg>
